X: 19590
T: Jamesy Gannon's
R: barndance
M: 4/4
K: Dmajor
|:A,2 DE F3 D|EFED FA3|B2 dB AFED|EDEF E3 D|
A,2 DE F3 D|EFED FA3|B2 dB AFED|EDEF D4:|
|:dcde fedB|ABAF A2 (3ABc|dcde fedB|ABAF E2 (3ABc|
dcde fedB|ABAF A2 (3ABc|(3dcd (3cBc (3BcB A2|(3 GFG (3FGF (3 EFE D2:|
|:D2 FG A3 F|GBAF EF (3GFE|D2 FA d3 A|(3cdc ec d4:|

